X:1
T:Adrian (Gould), SM
T:Adrian (Gould), SM
T:John Edgar Gould, 1846
T:Public Domain Courtesy of the Cyber Hymnal™
C:John Edgar Gould, 1846
Z:Public Domain
Z:Courtesy of the Cyber Hymnal™
%%score ( 1 2 ) ( 3 4 )
L:1/8
Q:1/4=110
M:3/4
K:E
V:1 treble 
V:2 treble 
V:3 bass 
V:4 bass 
V:1
 (EF) | (G3 A) [EG]2 | (F3 G) [DF]2 | [B,E]4 (Be) | ([Ad]3 [DF]) ([FA][Ac]) | %5
 ([GB]3 B,) ([B,E][EG]) | [DF]4 ([EG]>[B,E]) | [A,C]4 ([FA]>[CF]) | [B,D]4 (B>G) | E4 [Ac]2 | %10
 [GB]4 [F^B]2 | [Ec]4 [=Ge]2 | ([GB]3 [EG]) (G>F) | E4 |] %14
V:2
 E2 | E4 x2 | D4 x2 | x4 G2 | x6 | x3 B, x2 | x6 | x6 | x4 E2 | E4 x2 | x6 | x6 | x4 D2 | E4 |] %14
V:3
 (G,A,) | (B,3 C) [E,B,]2 | (A,3 B,) [B,,A,]2 | [E,G,]4 [E,B,]2 | [F,B,]4 (B,D) | (E3 G,) B,2 | %6
 [B,,B,]4 (B,>G,) | [A,,E,]4 (C>A,) | [B,,F,]4 ([G,,B,]2 | [C,G,]4) [A,,E]2 | [E,E]4 [G,D]2 | %11
 (C2 E2) [^A,E]2 | (E3 B,) (B,>A,) | [E,G,]4 |] %14
V:4
 E,2 | E,4 x2 | B,,4 x2 | x6 | x4 B,,2 | E,4 (G,E,) | x4 G,,2 | x4 A,,2 | x6 | x6 | x6 | ^A,4 x2 | %12
 B,4 B,,2 | x4 |] %14

